svgs/sharp-regular/arrow-down-to-bracket.svg

<svg xmlns="http://www.w3.org/2000/svg" viewBox="0 0 448 512"><!--! Font Awesome Pro 6.6.0 by @fontawesome - https://fontawesome.com License - https://fontawesome.com/license (Commercial License) Copyright 2024 Fonticons, Inc. --><path d="M241 345l-17 17-17-17L79 217l-17-17L96 166.1l17 17 87 87L200 24l0-24 48 0 0 24 0 246.1 87-87 17-17L385.9 200l-17 17L241 345zM48 344l0 120 352 0 0-120 0-24 48 0 0 24 0 144 0 24-24 0L24 512 0 512l0-24L0 344l0-24 48 0 0 24z"/></svg>

<svg xmlns="http://www.w3.org/2000/svg" viewBox="0 0 448 512"><!--! Font Awesome Pro 6.4.2 by @fontawesome - https://fontawesome.com License - https://fontawesome.com/license (Commercial License) Copyright 2023 Fonticons, Inc. --><path d="M241 345l-17 17-17-17L79 217l-17-17L96 166.1l17 17 87 87V24 0h48V24 270.1l87-87 17-17L385.9 200l-17 17L241 345zM48 344V464H400V344 320h48v24V488v24H424 24 0V488 344 320H48v24z"/></svg>
